svg/Outline/hourglass.svg

<svg viewBox="0 0 24 24" xmlns="http://www.w3.org/2000/svg" width="24" height="24"><path d="M13.88 6.9a.5.5 0 0 1 .39.8l-.23.3-.12.15c-.37.47-1 1.27-1.32 2.24l-.07.22a5.3 5.3 0 0 0-.11 2.29h-.85a5 5 0 0 1-.03-1.94l-.08-.35-.07-.22a7 7 0 0 0-1.1-1.95l-.34-.43-.23-.3a.5.5 0 0 1 .4-.81z"/><path d="M12.53 10.61a5.3 5.3 0 0 1 0 2.78h-1.07l.08-.35a5 5 0 0 0 0-2.08l-.08-.35z"/><path d="M12.38 12.6a5.3 5.3 0 0 1 .15.79l.07.22c.32.97.95 1.77 1.32 2.24l.12.14 1.66 2.14.05.07a.53.53 0 0 1-.46.78H8.7a.53.53 0 0 1-.41-.85l1.66-2.14.34-.43c.4-.52.93-1.29 1.17-2.17l.08-.35a5 5 0 0 1 .09-.44z"/><path fill-rule="evenodd" d="M16.22 1.73a3.05 3.05 0 0 1 2.9 3.04l-.01.25a6 6 0 0 1-1.28 3.5l-1.27 1.62-.31.4c-.27.35-.42.58-.5.83a2 2 0 0 0 0 1.26c.1.33.34.63.8 1.23l1.28 1.63a6 6 0 0 1 1.28 3.74v.16a3.05 3.05 0 0 1-2.89 2.88H7.78a3.05 3.05 0 0 1-2.89-2.88v-.16c0-1.27.4-2.5 1.13-3.54l.15-.2 1.27-1.63c.41-.53.64-.82.76-1.1l.05-.13a2 2 0 0 0 0-1.26 3 3 0 0 0-.5-.83l-.3-.4-1.28-1.63A6 6 0 0 1 4.9 5.02v-.25a3.05 3.05 0 0 1 2.89-3.04h8.44m-8.28 1.8c-.7 0-1.25.55-1.25 1.24 0 .95.32 1.88.9 2.64l1.27 1.63c.34.42.75.92 1 1.5l.1.26.08.3c.17.69.15 1.42-.08 2.1-.23.7-.72 1.27-1.1 1.76L7.6 16.6a4.3 4.3 0 0 0-.9 2.64c0 .69.56 1.25 1.25 1.25h8.12c.7 0 1.25-.56 1.25-1.25a4.3 4.3 0 0 0-.9-2.64l-1.27-1.63c-.38-.49-.87-1.07-1.1-1.76a3.8 3.8 0 0 1 0-2.4l.1-.26c.25-.58.66-1.08 1-1.5L16.4 7.4c.58-.76.9-1.69.9-2.64 0-.69-.56-1.25-1.25-1.25z" clip-rule="evenodd"/></svg>

<svg viewBox="0 0 24 24" xmlns="http://www.w3.org/2000/svg" width="24" height="24"><path d="M13.88 6.9A.5 .5 0 0 1 14.27 7.7L13.92 8.15C13.55 8.62 12.92 9.42 12.6 10.39L12.53 10.61A5.3 5.3 0 0 0 12.42 12.9L11.57 12.9A5 5 0 0 1 11.54 10.96L11.39 10.39A7 7 0 0 0 10.29 8.44L9.72 7.71A.5 .5 0 0 1 10.12 6.9Z"/><path d="M12.53 10.61a5.3 5.3 0 0 1 0 2.78h-1.07l.08-.35a5 5 0 0 0 0-2.08l-.08-.35z"/><path d="M12.38 12.6A5.3 5.3 0 0 1 12.53 13.39L12.6 13.61C12.92 14.58 13.55 15.38 13.92 15.85L15.75 18.2A.53 .53 0 0 1 15.29 18.98L8.7 18.98A.53 .53 0 0 1 8.29 18.13L10.29 15.56C10.69 15.04 11.22 14.27 11.46 13.39L11.54 13.04A5 5 0 0 1 11.63 12.6Z"/><path fill-rule="evenodd" d="M16.22 1.73A3.05 3.05 0 0 1 19.12 4.77L19.11 5.02A6 6 0 0 1 17.83 8.52L16.25 10.54C15.98 10.89 15.83 11.12 15.75 11.37A2 2 0 0 0 15.75 12.63C15.85 12.96 16.09 13.26 16.55 13.86L17.83 15.49A6 6 0 0 1 19.11 19.23L19.11 19.39A3.05 3.05 0 0 1 16.22 22.27L7.78 22.27A3.05 3.05 0 0 1 4.89 19.39L4.89 19.23C4.89 17.96 5.29 16.73 6.02 15.69L7.44 13.86C7.85 13.33 8.08 13.04 8.2 12.76L8.25 12.63A2 2 0 0 0 8.25 11.37A3 3 0 0 0 7.75 10.54L6.17 8.51A6 6 0 0 1 4.9 5.02L4.9 4.77A3.05 3.05 0 0 1 7.79 1.73L16.23 1.73M7.95 3.53C7.25 3.53 6.7 4.08 6.7 4.77C6.7 5.72 7.02 6.65 7.6 7.41L8.87 9.04C9.21 9.46 9.62 9.96 9.87 10.54L10.05 11.1C10.22 11.79 10.2 12.52 9.97 13.2C9.74 13.9 9.25 14.47 8.87 14.96L7.6 16.6A4.3 4.3 0 0 0 6.7 19.24C6.7 19.93 7.26 20.49 7.95 20.49L16.07 20.49C16.77 20.49 17.32 19.93 17.32 19.24A4.3 4.3 0 0 0 16.42 16.6L15.15 14.97C14.77 14.48 14.28 13.9 14.05 13.21A3.8 3.8 0 0 1 14.05 10.81L14.15 10.55C14.4 9.97 14.81 9.47 15.15 9.05L16.4 7.4C16.98 6.64 17.3 5.71 17.3 4.76C17.3 4.07 16.74 3.51 16.05 3.51Z" clip-rule="evenodd"/></svg>
